X: 1
T:Boarischer
C:Bad Ischl
M:2/4
L:1/16
K:G
d2gBd4|B2dGB4|AGAB cdef|g2fed4|d2gBd4|\
B2dGB4|AGAB cdef|g2b2g4:|
K:C
|:cBcd c2BA|G2c2e4|g2f2 dcd2|f2e2c4|\
cBcd c2BA|G2c2e4|g2f2 dfed|c2e2c4:|
